X:1
T: Alyth Burn
C:
R:Jig
Q:180
K:G
M:6/8
L:1/16
|:D2|D3EF2 G3AB2|c3BA2 d4c2|B3AG2 A3Bc2|d3ef2 g4f2|
e3c'e2 d3bd2|c3ac2 B3gB2|A3Bc2 d3ef2|g6G4:|
c'2|b3ag2 a4f2|g3fe2 d4B2|c3ac2 B3gB2|c3AA2 A4c'2|
b3ag2 a4f2|g3fe2 d3cB2|A3Bc2 d3ef2|g6 G4c'2|
b3ag2 a4f2|g3fe2 d4B2|c3ac2 B3gB2|c3AA2 A3dc2|
B3cd2 dg3f2|e3ce2 a4g2|f3ed2 c'3ba2|g6G4||
